wp-content/themes/quarkexpeditions/src/assets/svg/compass.svg

<svg class="icon icon-compass" width="33" height="32" viewBox="0 0 33 32" fill="none" xmlns="http://www.w3.org/2000/svg">
<circle cx="16.4" cy="16" r="16" fill="#ECEEF2"/>
<path d="M16.4 7C11.4375 7 7.40002 11.0375 7.40002 16C7.40002 20.9625 11.4375 25 16.4 25C21.3625 25 25.4 20.9625 25.4 16C25.4 11.0375 21.3625 7 16.4 7ZM17.6503 17.3148L11.8301 20.3472L15.1493 14.6851L20.9694 11.6528L17.6503 17.3148ZM16.4 17.0764C16.9944 17.0764 17.4764 16.5944 17.4764 16C17.4764 15.4056 16.9944 14.9236 16.4 14.9236C15.8056 14.9236 15.3236 15.4056 15.3236 16C15.3236 16.5944 15.8056 17.0764 16.4 17.0764Z" fill="#232933"/>
</svg>

<svg class="icon icon-compass" width="33" height="32" fill="none" xmlns="http://www.w3.org/2000/svg"><circle cx="16.4" cy="16" r="16" fill="#ECEEF2"/><path d="M16.4 7c-4.962 0-9 4.037-9 9 0 4.962 4.037 9 9 9s9-4.038 9-9c0-4.963-4.037-9-9-9Zm1.25 10.315-5.82 3.032 3.32-5.662 5.82-3.032-3.32 5.662Zm-1.25-.239a1.077 1.077 0 1 0 0-2.153 1.077 1.077 0 0 0 0 2.153Z" fill="#232933"/></svg>
